svg/Pictogram/pictograms-nps-misc-hold_hand_rail.svg

<svg xmlns="http://www.w3.org/2000/svg" viewBox="0 0 256 256"><path d="m0 0c-.541 0-.982-.441-.982-.982v-7.528c0-.541.441-.98.982-.98h7.527c.541 0 .981.439.981.98v7.528c0 .541-.44.982-.981.982h-7.527" fill="#fff" transform="matrix(25.88211 0 0-25.88211 30.583 5.166)"/><path d="m0 0l.418-.205c.187-.16.23-.315.23-.315l.53-1.427c.074-.207.027-.385-.16-.463-.157-.047-.352-.043-.459.228.002-.007-.442 1.196-.442 1.196l-1.199.556-.113-.045.201-.968c.021-.139-.027-.295-.059-.375l-.39-1.034c-.123-.31-.325-.47-.541-.396-.344.119-.116.549-.116.549l.348.904-.221 1.014-1.187-.471-.104.262 1.233.486-.123.565.017 1.523-.552-.658-.12-.969c-.033-.305-.31-.252-.31-.252-.25.043-.242.272-.242.272l.113 1.019c.035.262.115.328.115.328l.799.91c.164.229.459.205.459.205l.654-.007c.325 0 .395-.157.395-.157l.771-1.01.866.007c0 0 .238-.013.25-.267-.016-.262-.25-.27-.25-.27l-1 .014c-.1-.002-.194.047-.252.127l-.411.51.002-.969.51-.252 4.783 1.895.104-.26-4.545-1.801m4.484-.77h-1.156v-1.187h-1.271v-1.387h-1.674v.449h1.224v1.387h1.272v1.186h1.535.07v-.448m-6.144 4.358c.281.103.594-.043.697-.326.102-.282-.043-.594-.324-.696-.283-.103-.596.043-.697.325-.104.283.041.593.324.697m5.912 2.01h-7.527c-.653 0-1.182-.53-1.182-1.182v-7.527c0-.653.529-1.182 1.182-1.182h7.527c.652 0 1.182.529 1.182 1.182v7.527c0 .652-.53 1.182-1.182 1.182" transform="matrix(25.88211 0 0-25.88211 115.36 144.99)"/></svg>

<?xml version="1.0" encoding="UTF-8" standalone="no"?>
<!-- Created with Inkscape (http://www.inkscape.org/) -->
<svg
   xmlns:dc="http://purl.org/dc/elements/1.1/"
   xmlns:cc="http://creativecommons.org/ns#"
   xmlns:rdf="http://www.w3.org/1999/02/22-rdf-syntax-ns#"
   xmlns:svg="http://www.w3.org/2000/svg"
   xmlns="http://www.w3.org/2000/svg"
   xmlns:sodipodi="http://sodipodi.sourceforge.net/DTD/sodipodi-0.dtd"
   xmlns:inkscape="http://www.inkscape.org/namespaces/inkscape"
   width="256"
   height="256"
   id="svg8302"
   sodipodi:version="0.32"
   inkscape:version="0.46"
   version="1.0"
   sodipodi:docname="pictograms-nps-misc-hold_hand_rail-2.svg"
   inkscape:output_extension="org.inkscape.output.svg.inkscape">
  <defs
     id="defs8304">
    <inkscape:perspective
       sodipodi:type="inkscape:persp3d"
       inkscape:vp_x="0 : 526.18109 : 1"
       inkscape:vp_y="0 : 1000 : 0"
       inkscape:vp_z="744.09448 : 526.18109 : 1"
       inkscape:persp3d-origin="372.04724 : 350.78739 : 1"
       id="perspective8310" />
  </defs>
  <sodipodi:namedview
     id="base"
     pagecolor="#ffffff"
     bordercolor="#666666"
     borderopacity="1.0"
     gridtolerance="10000"
     guidetolerance="10"
     objecttolerance="10"
     inkscape:pageopacity="0.0"
     inkscape:pageshadow="2"
     inkscape:zoom="0.7"
     inkscape:cx="61.634556"
     inkscape:cy="136.73676"
     inkscape:document-units="px"
     inkscape:current-layer="layer1"
     showgrid="false"
     inkscape:window-width="738"
     inkscape:window-height="674"
     inkscape:window-x="0"
     inkscape:window-y="198" />
  <metadata
     id="metadata8307">
    <rdf:RDF>
      <cc:Work
         rdf:about="">
        <dc:format>image/svg+xml</dc:format>
        <dc:type
           rdf:resource="http://purl.org/dc/dcmitype/StillImage" />
      </cc:Work>
    </rdf:RDF>
  </metadata>
  <g
     inkscape:label="Layer 1"
     inkscape:groupmode="layer"
     id="layer1">
    <g
       id="g2922"
       transform="matrix(25.882115,0,0,-25.882115,30.582514,5.1662772)">
      <path
         d="M 0,0 C -0.541,0 -0.982,-0.441 -0.982,-0.982 L -0.982,-8.51 C -0.982,-9.051 -0.541,-9.49 0,-9.49 L 7.527,-9.49 C 8.068,-9.49 8.508,-9.051 8.508,-8.51 L 8.508,-0.982 C 8.508,-0.441 8.068,0 7.527,0 L 0,0 z"
         style="fill:#ffffff;fill-opacity:1;fill-rule:nonzero;stroke:none"
         id="path2924" />
    </g>
    <g
       id="g2926"
       transform="matrix(25.882115,0,0,-25.882115,115.35659,144.99161)">
      <path
         d="M 0,0 L 0.418,-0.205 C 0.605,-0.365 0.648,-0.52 0.648,-0.52 L 1.178,-1.947 C 1.252,-2.154 1.205,-2.332 1.018,-2.41 C 0.861,-2.457 0.666,-2.453 0.559,-2.182 C 0.561,-2.189 0.117,-0.986 0.117,-0.986 L -1.082,-0.43 L -1.195,-0.475 L -0.994,-1.443 C -0.973,-1.582 -1.021,-1.738 -1.053,-1.818 L -1.443,-2.852 C -1.566,-3.162 -1.768,-3.322 -1.984,-3.248 C -2.328,-3.129 -2.1,-2.699 -2.1,-2.699 L -1.752,-1.795 L -1.973,-0.781 L -3.16,-1.252 L -3.264,-0.99 L -2.031,-0.504 L -2.154,0.061 L -2.137,1.584 L -2.689,0.926 L -2.809,-0.043 C -2.842,-0.348 -3.119,-0.295 -3.119,-0.295 C -3.369,-0.252 -3.361,-0.023 -3.361,-0.023 L -3.248,0.996 C -3.213,1.258 -3.133,1.324 -3.133,1.324 L -2.334,2.234 C -2.17,2.463 -1.875,2.439 -1.875,2.439 L -1.221,2.432 C -0.896,2.432 -0.826,2.275 -0.826,2.275 L -0.055,1.266 L 0.811,1.273 C 0.811,1.273 1.049,1.26 1.061,1.006 C 1.045,0.744 0.811,0.736 0.811,0.736 L -0.191,0.75 C -0.291,0.748 -0.385,0.797 -0.443,0.877 L -0.854,1.387 L -0.852,0.418 L -0.342,0.166 L 4.441,2.061 L 4.545,1.801 L 0,0 z M 4.484,-0.77 L 3.328,-0.77 L 3.328,-1.957 L 2.057,-1.957 L 2.057,-3.344 L 0.383,-3.344 L 0.383,-2.895 L 1.607,-2.895 L 1.607,-1.508 L 2.879,-1.508 L 2.879,-0.322 L 4.414,-0.322 L 4.484,-0.322 L 4.484,-0.77 z M -1.66,3.588 C -1.379,3.691 -1.066,3.545 -0.963,3.262 C -0.861,2.98 -1.006,2.668 -1.287,2.566 C -1.57,2.463 -1.883,2.609 -1.984,2.891 C -2.088,3.174 -1.943,3.484 -1.66,3.588 M 4.252,5.602 L -3.275,5.602 C -3.928,5.602 -4.457,5.072 -4.457,4.42 L -4.457,-3.107 C -4.457,-3.76 -3.928,-4.289 -3.275,-4.289 L 4.252,-4.289 C 4.904,-4.289 5.434,-3.76 5.434,-3.107 L 5.434,4.42 C 5.434,5.072 4.904,5.602 4.252,5.602"
         style="fill:#000000;fill-opacity:1;fill-rule:nonzero;stroke:none"
         id="path2928" />
    </g>
  </g>
</svg>
